X: 53
T:Scatter the Mud
M:6/8
L:1/8
R:Double Jig
K:ADor
eAA ~B3|eAA ABd|eAA ~B3|dBG B2d|!
eAA ~B3|eAA AGE|GAB dge|dBA A3:|!
|:eaa egg|dBA ABd|eaa egg|dBG B2d|!
eaf ~g3|dBA AGE|GAB dge|dBA A3:|]!
